X: 1
T: R\'egit\'anc  [F]
T: Old dance
O: Hungary
Z: 2009 John Chambers <jc:trillian.mit.edu>
S: handwritten MS of unknown origin
M: 2/4
L: 1/8
K: F
|: "F"cc    c2 |    AA "Bb"B2 | "F"AA "C7"FG |1,3 "F"A2 Az :|2,4 "F"F2 Fz :|
|: "F"FF "C"G2 | "F"AA "Bb"B2 | "F"AA "C7"FG |1,3 "F"A2 Az :|2,4 "F"F2 Fz :|


%%sep 3 1 500

